!!!!SEGMENT: pl-cz--iii-206--001-002_engel-jan--sinfonia-ex-f-andante.krn
!!!cenid: 17xx:886
!!!COM: Engel, Jan
!!!COM-rismid: pe30009138
!!!CDT: <1772->1788
!!!CNT:
!!!OPR: Sinfonia ex F
!!!OTL: Andante
!!!OMV: 002
!!!PDT: 1787
!!!AGN: Secular
!!!SMS-siglum: PL-CZ
!!!SMS-shelfmark: III-206
!!!SMS-shelfwork: 001-002 M
!!!SMS-variant:
!!!SMS-altvar:
!!!NIFC-rismid: 300000297
!!!URL-scan: http://repozytorium.nifc.pl/skany/pl-cz-nut--iii-206
!!!ONB-nifc: UWAGA: części Sinfonii: Presto, Andante, Presto
!!!AIN: 1 cbass 2 cornt 1 fagot 2 oboe 1 viola 2 violn
!!!key: F-
**kern	**dynam	**kern	**dynam	**kern	**dynam	**kern	**dynam	**kern	**kern	**kern	**dynam	**kern	**kern
*part9	*part9	*part8	*part8	*part7	*part7	*part6	*part6	*part5	*part4	*part3	*part3	*part2	*part1
*staff9	*	*staff8	*	*staff7	*	*staff6	*	*staff5	*staff4	*staff3	*	*staff2	*staff1
*I"Baſso.	*	*I"Alto Viola	*	*I"Violino 2do	*	*I"Violino Primo	*	*I"Corno 2do Ex F.	*I"Cornu 1mo Ex F.	*I"Fagotto Obli	*	*I"Obe. 2do	*I"Oboe Primo
*I'cb	*	*I'vla	*	*I'vl II	*	*I'vl I	*	*I'cor II	*I'cor I	*I'fag	*	*I'ob II	*I'ob I
*Icbass	*	*Iviola	*	*Ivioln	*	*Ivioln	*	*Icornt	*Icornt	*Ifagot	*	*Ioboe	*Ioboe
*ICstr	*	*ICstr	*	*ICstr	*	*ICstr	*	*ICbras	*ICbras	*ICww	*	*ICww	*ICww
*IG	*	*	*	*	*	*	*	*	*	*	*	*	*
*clefF4	*	*clefC3	*	*clefG2	*	*clefG2	*	*clefG2	*clefG2	*clefF4	*	*clefG2	*clefG2
*	*	*	*	*	*	*	*	*ITrd4c7	*ITrd4c7	*	*	*	*
*k[b-e-]	*	*k[b-e-]	*	*k[b-e-]	*	*k[b-e-]	*	*k[b-e-]	*k[b-e-]	*k[b-e-]	*	*k[b-e-]	*k[b-e-]
*F-:	*	*F-:	*	*F-:	*	*F-:	*	*F-:	*F-:	*F-:	*	*F-:	*F-:
*M3/4	*	*M3/4	*	*M3/4	*	*M3/4	*	*M3/4	*M3/4	*M3/4	*	*M3/4	*M3/4
=1	=1	=1	=1	=1	=1	=1	=1	=1	=1	=1	=1	=1	=1
*	*	*	*	*	*	*^	*	*	*	*	*	*	*
!	!	!LO:TX:a:t=problem&colon;przy kluczu błędnie f- B-	!	!LO:TX:a:t=problem&colon;kolejność znaków ee- b-	!	!LO:TX:a:t=problem&colon;kolejność znaków ee- b-	!	!	!	!	!LO:TX:a:t=problem&colon;przy kluczu błędnie F- BB-	!	!	!
!LO:TX:a:t=problem&colon;kolejność znaków E- BB-	!LO:DY:a	!LO:TX:a:B:t=Andante	!	!LO:TX:a:B:t=Andante	!LO:DY:a	!LO:TX:a:B:t=Andante	!	!LO:DY:a	!LO:TX:a:B:t=Andante Tacet	!LO:TX:a:B:t=Andante Tacet	!LO:TX:a:B:t=Andante	!	!LO:TX:a:B:t=Andante Tacet	!LO:TX:a:B:t=Andante Tacet
!	!	!	!	!	!	!	!	!LO:DY:b:t=for	!	!	!	!	!	!
8r	f	4r	.	8d/	f	8b-/	8d\	f	2.ryy	2.ryy	4r	.	2.ryy	2.ryy
!	!	!	!	!	!LO:DY:a	!LO:TX:a:t=problem&colon;p = pia&colon;global	!	!LO:DY:a	!	!	!	!	!	!
!	!	!	!	!	!LO:DY:b:t=pia	!	!	!LO:DY:b:t=pia	!	!	!	!	!	!
8BB-/	.	.	.	4d/	p	4b-/	8ryy	p	.	.	.	.	.	.
*tremolo	*	*	*	*	*	*	*	*	*	*	*	*	*	*
!	!LO:DY:a	!	!	!	!	!	!	!	!	!	!	!	!	!
8BB-/L	p	8r	.	.	.	.	2rgyy	.	.	.	8r	.	.	.
8BB-/	.	8f\L	f	8d/	.	8b-/	.	.	.	.	8d\L	.	.	.
8BB-/	.	8e-\	.	(16f/LL	.	(16dd\LL	.	.	.	.	8c\	.	.	.
.	.	.	.	16e-/	.	16cc\	.	.	.	.	.	.	.	.
8BB-/J	.	8d\J	.	16e-/	.	16cc\	.	.	.	.	8B-\J	.	.	.
.	.	.	.	16d/JJ)	.	16b-\JJ)	.	.	.	.	.	.	.	.
*	*	*	*	*	*	*v	*v	*	*	*	*	*	*	*
=2	=2	=2	=2	=2	=2	=2	=2	=2	=2	=2	=2	=2	=2
!	!LO:DY:a	!	!	!	!LO:DY:a:t=for	!	!LO:DY:a:t=for	!	!	!	!	!	!
8r	f	4c\	f	8c/	f	8a/	f	2.ryy	2.ryy	4A\	.	2.ryy	2.ryy
!	!	!	!	!	!LO:DY:a:t=pia	!	!LO:DY:a:t=pia	!	!	!	!	!	!
8F\	.	.	.	4c/	p	4a/	p	.	.	.	.	.	.
!LO:TX:a:t=problem&colon;1 cała nuta	!LO:DY:a	!	!	!	!	!	!	!	!	!LO:TX:a:t=SIC&colon;s=4A	!	!	!
*2\right	*	*	*	*	*	*	*	*	*	*	*	*	*
8F\L	p	4c\	p	.	.	.	.	.	.	4G\	.	.	.
8F\	.	.	.	4c/	.	4a/	.	.	.	.	.	.	.
8F\	.	4r	.	.	.	.	.	.	.	4r	.	.	.
8F\J	.	.	.	8c/	.	8a/	.	.	.	.	.	.	.
=3	=3	=3	=3	=3	=3	=3	=3	=3	=3	=3	=3	=3	=3
!	!LO:DY:a	!	!	!	!LO:DY:a	!	!LO:DY:a:t=for	!	!	!	!	!	!
8r	f	4r	.	8e-/	f	8e-/ 8cc	f	2.ryy	2.ryy	4r	.	2.ryy	2.ryy
!	!	!	!	!	!LO:DY:a	!	!LO:DY:a:t=pia	!	!	!	!	!	!
8F\	.	.	.	4e-/	p	4cc\	p	.	.	.	.	.	.
!	!LO:DY:a	!	!	!	!	!	!	!	!	!	!	!	!
8F\L	p	8r	.	.	.	.	.	.	.	8r	.	.	.
8F\	.	(8g\L	p	8e-/	.	8cc\	.	.	.	8e-\L	.	.	.
8F\	.	8f\	.	16g/LL	.	(16ee-\LL	.	.	.	8d\	.	.	.
.	.	.	.	16f/	.	16dd\	.	.	.	.	.	.	.
8F\J	.	8e-\J)	.	16f/	.	16dd\	.	.	.	8c\J	.	.	.
.	.	.	.	16e-/JJ	.	16cc\JJ)	.	.	.	.	.	.	.
=4	=4	=4	=4	=4	=4	=4	=4	=4	=4	=4	=4	=4	=4
!	!	!	!	!	!LO:DY:a	!	!LO:DY:a:t=for	!	!	!	!	!	!
8r	.	4d\	f	8d/	f	8b-\	f	2.ryy	2.ryy	4B-\	.	2.ryy	2.ryy
!	!LO:DY:a	!	!	!	!LO:DY:a:t=pia	!	!LO:DY:a:t=pia	!	!	!	!	!	!
8BB-/	f	.	.	4d/	p	4b-\	p	.	.	.	.	.	.
!	!LO:DY:a	!	!	!	!	!	!	!	!	!	!	!	!
8BB-/L	p	4d\	p	.	.	.	.	.	.	4B-\	.	.	.
8BB-/	.	.	.	4d/	.	4b-\	.	.	.	.	.	.	.
8BB-/	.	4r	.	.	.	.	.	.	.	4r	.	.	.
8BB-/J	.	.	.	8d/	.	8b-\	.	.	.	.	.	.	.
=5	=5	=5	=5	=5	=5	=5	=5	=5	=5	=5	=5	=5	=5
*	*	*	*	*	*	*	*	*	*	*all\right	*	*	*
*	*	*	*	*	*	*	*	*	*	*2\right	*	*	*
!	!	!LO:TX:a:t=problem&colon;2\right&colon;global	!	!	!LO:DY:a	!LO:TX:a:t=problem&colon;niejednoznaczny zapis łuku	!LO:DY:a	!	!	!	!	!	!
*	*	*2\right	*	*	*	*	*	*	*	*	*	*	*
8r	.	2.f\	.	8b-\	f	(8dd\	f	2.ryy	2.ryy	2.B-\	.	2.ryy	2.ryy
!	!LO:DY:a	!	!	!	!LO:DY:a	!	!LO:DY:a	!	!	!	!	!	!
8BB-/	f	.	.	4b-\	p	4dd\	p	.	.	.	.	.	.
!	!LO:DY:a	!	!	!	!	!	!	!	!	!	!	!	!
8D/L	p	.	.	.	.	.	.	.	.	.	.	.	.
8C/	.	.	.	8b-\	.	8dd\)	.	.	.	.	.	.	.
!	!	!	!	!	!	!LO:LB:g=original	!	!	!	!	!	!	!
8D/	.	.	.	(16b-\LL	.	(16dd\LL	.	.	.	.	.	.	.
.	.	.	.	16cc\	.	16ee-\	.	.	.	.	.	.	.
8BB-/J	.	.	.	16cc\	.	16ee-\	.	.	.	.	.	.	.
.	.	.	.	16dd\JJ)	.	16ff\JJ)	.	.	.	.	.	.	.
=6	=6	=6	=6	=6	=6	=6	=6	=6	=6	=6	=6	=6	=6
!	!	!	!	!	!LO:DY:a	!	!LO:DY:a:t=for	!	!	!	!	!	!
8r	.	2.g\	.	8ee-\	f	8gg\	f	2.ryy	2.ryy	2.B-\	.	2.ryy	2.ryy
!	!LO:DY:a	!	!	!	!LO:DY:a:t=pia	!	!LO:DY:a:t=pia	!	!	!	!	!	!
8E-\	f	.	.	4ee-\	p	4gg\	p	.	.	.	.	.	.
!	!LO:DY:a	!	!	!	!	!	!	!	!	!	!	!	!
8G\L	p	.	.	.	.	.	.	.	.	.	.	.	.
8F\	.	.	.	8ee-\	.	8gg\	.	.	.	.	.	.	.
8G\	.	.	.	(16ee-\LL	.	16gg\LL	.	.	.	.	.	.	.
.	.	.	.	16ff\	.	16aa\	.	.	.	.	.	.	.
8E-\J	.	.	.	16ff\	.	16aa\	.	.	.	.	.	.	.
.	.	.	.	16gg\JJ)	.	16bb-\JJ	.	.	.	.	.	.	.
!	!	!	!	!LO:LB:g=original	!	!	!	!	!	!	!	!	!
=7	=7	=7	=7	=7	=7	=7	=7	=7	=7	=7	=7	=7	=7
!	!	!	!	!	!	!	!LO:DY:b:t=for	!	!	!	!	!	!
8r	.	4g\	.	8ee-\	f	8ccc\	f	2.ryy	2.ryy	2c\	.	2.ryy	2.ryy
!	!LO:DY:a	!	!	!	!	!	!LO:DY:b:t=pia	!	!	!	!	!	!
8BB-/	f	.	.	4cc\	p	4ee-\	p	.	.	.	.	.	.
!	!LO:DY:a	!	!	!	!	!	!	!	!	!	!	!	!
8E-\L	p	4e-\	.	.	.	.	.	.	.	.	.	.	.
8D\	.	.	.	8cc\	.	8ee-\	.	.	.	.	.	.	.
8E-\	.	4e-\	.	(16cc\LL	.	(16ee-\LL	.	.	.	4B-\	f	.	.
.	.	.	.	16dd\	.	16ff\	.	.	.	.	.	.	.
8C\J	.	.	.	16dd\	.	16ff\	.	.	.	.	.	.	.
!LO:LB:g=original	!	!	!	!	!	!	!	!	!	!	!	!	!
.	.	.	.	16ee-\JJ)	.	16gg\JJ)	.	.	.	.	.	.	.
=8	=8	=8	=8	=8	=8	=8	=8	=8	=8	=8	=8	=8	=8
!	!	!	!	!	!	!	!LO:DY:b:t=for	!	!	!	!	!	!
8r	.	4f\	.	8ee-\	f	8gg\	f	2.ryy	2.ryy	4A\	p	2.ryy	2.ryy
!	!LO:DY:a	!	!	!	!	!	!LO:DY:b:t=pia	!	!	!	!	!	!
8F\	f	.	.	(16ee-\LL	p	16gg\LL	p	.	.	.	.	.	.
.	.	.	.	16dd\JJ)	.	16ff\JJ	.	.	.	.	.	.	.
!	!LO:DY:a	!	!	!	!	!	!	!	!	!	!	!	!
8F\L	p	4f\	.	(16dd\LL	.	(16ff\LL	.	.	.	4F\	.	.	.
.	.	.	.	16cc\	.	16ee-\	.	.	.	.	.	.	.
8F\	.	.	.	16cc\	.	16ee-\	.	.	.	.	.	.	.
.	.	.	.	16b-\JJ)	.	16dd\JJ)	.	.	.	.	.	.	.
8F\	.	4f\	.	(16b-\LL	.	(16dd\LL	.	.	.	4F\	.	.	.
.	.	.	.	16a\	.	16cc\	.	.	.	.	.	.	.
8F\J	.	.	.	16a\	.	16cc\	.	.	.	.	.	.	.
.	.	.	.	16g\JJ)	.	16b-\JJ)	.	.	.	.	.	.	.
=9	=9	=9	=9	=9	=9	=9	=9	=9	=9	=9	=9	=9	=9
!	!LO:DY:a	!	!	!	!	!	!LO:DY:a	!	!	!	!	!	!
8r	f	4f\	.	16g/LL	f	(16b-/LL	f	2.ryy	2.ryy	4F\	.	2.ryy	2.ryy
!	!	!	!	!	!	!	!LO:DY:a	!	!	!	!	!	!
.	.	.	.	16f/	.	16a/	p	.	.	.	.	.	.
8F\	.	.	.	16f/	.	16a/	.	.	.	.	.	.	.
!	!	!	!	!	!LO:DY:b:t=pia	!	!	!	!	!	!	!	!
.	.	.	.	16en/JJ	p	16g/JJ)	.	.	.	.	.	.	.
.	.	.	.	8qqe/	.	8qqg/	.	.	.	.	.	.	.
!	!LO:DY:a	!	!	!	!	!	!	!	!	!	!	!	!
8F\L	p	4en\	.	2f/	.	2f/	.	.	.	4r	.	.	.
8E-\	.	.	.	.	.	.	.	.	.	.	.	.	.
8D\	.	4f\	.	.	.	.	.	.	.	4r	.	.	.
!	!	!LO:LB:g=original	!	!	!	!	!	!	!	!	!	!	!
8C\J	.	.	.	.	.	.	.	.	.	.	.	.	.
=10	=10	=10	=10	=10	=10	=10	=10	=10	=10	=10	=10	=10	=10
!	!	!LO:TX:a:t=problem&colon;kolejność znaków e- B-	!	!LO:TX:a:t=|	!	!LO:TX:a:t=|	!	!	!	!LO:TX:a:t=Solo.	!	!	!
!	!	!	!	!	!	!	!LO:DY:b:t=for	!	!	!	!	!	!
8r	.	8r	.	8b-\	f	8b-\	f	2.ryy	2.ryy	8r	f	2.ryy	2.ryy
!	!LO:DY:a	!	!	!	!	!	!LO:DY:b:t=pia	!	!	!	!	!	!
8BB-/	f	(8b-\L	.	(4b-\	p	(4dd\	p	.	.	8d\L	.	.	.
!	!LO:DY:a	!	!	!	!	!	!	!	!	!	!	!	!
8B-\L	p	8dd\	.	.	.	.	.	.	.	8f\	.	.	.
8d\	.	8b-\	.	8dd\)	.	8gg\)	.	.	.	8d\	.	.	.
8c\	.	8a\	.	4r	.	4r	.	.	.	8B-\	p	.	.
!	!	!	!	!	!	!LO:LB:g=original	!	!	!	!	!	!	!
8B-\J	.	8g\J)	.	.	.	.	.	.	.	8B-\J	.	.	.
=11	=11	=11	=11	=11	=11	=11	=11	=11	=11	=11	=11	=11	=11
!	!	!	!	!LO:TX:a:t=|	!	!LO:TX:a:t=|	!	!	!	!	!	!	!
!	!	!	!	!	!	!	!LO:DY:b:t=for	!	!	!	!	!	!
8r	.	4f\	.	8a/	f	8cc\	f	2.ryy	2.ryy	4A\	.	2.ryy	2.ryy
!	!LO:DY:a	!	!	!	!	!	!LO:DY:b:t=pia	!	!	!	!	!	!
8F\	f	.	.	(4a/	p	(4ee-\	p	.	.	.	.	.	.
!	!LO:DY:a	!	!	!	!	!	!	!	!	!	!	!	!
8F\L	p	4g\	.	.	.	.	.	.	.	4B-\	p	.	.
8F\	.	.	.	8cc/)	.	8aa\)	.	.	.	.	.	.	.
8F\	.	4a\	.	4r	.	4r	.	.	.	4c\	.	.	.
!	!	!	!	!	!	!	!	!	!	!LO:LB:g=original	!	!	!
8F\J	.	.	.	.	.	.	.	.	.	.	.	.	.
=12	=12	=12	=12	=12	=12	=12	=12	=12	=12	=12	=12	=12	=12
!	!	!	!	!LO:TX:a:t=|	!	!LO:TX:a:t=|	!	!	!	!	!	!	!
!	!	!	!	!	!	!	!LO:DY:b:t=for	!	!	!	!	!	!
8r	.	8r	.	8f/	f	8a/	f	2.ryy	2.ryy	8r	.	2.ryy	2.ryy
!LO:TX:a:t=f	!LO:DY:a	!	!	!	!	!	!LO:DY:b:t=pia	!	!	!	!	!	!
8FF/	f	8a\L	.	(4a/	p	(4cc\	p	.	.	8c\L	.	.	.
8F\L	.	8cc\	.	.	.	.	.	.	.	8f\	.	.	.
!	!LO:DY:a	!	!	!	!	!	!	!	!	!	!	!	!
8A\	p	8b-\	.	8a/)	.	8ff\)	.	.	.	8c\	.	.	.
8G\	.	8g\	.	4r	.	4r	.	.	.	8B-\	.	.	.
!	!	!	!	!LO:LB:g=original	!	!	!	!	!	!	!	!	!
8F\J	.	8e-\J	.	.	.	.	.	.	.	8A\J	.	.	.
=13	=13	=13	=13	=13	=13	=13	=13	=13	=13	=13	=13	=13	=13
!	!	!	!	!LO:TX:a:t=|	!	!LO:TX:a:t=|	!	!	!	!	!	!	!
8r	.	4en\	.	8g/	f	8b-\	f	2.ryy	2.ryy	4G\	.	2.ryy	2.ryy
!	!LO:DY:a	!	!	!	!	!	!	!	!	!	!	!	!
8C/	f	.	.	(4g/	p	(4een\	p	.	.	.	.	.	.
!	!LO:DY:a	!	!	!	!	!	!	!	!	!	!	!	!
8C/L	p	4f\	.	.	.	.	.	.	.	4A\	.	.	.
8C/	.	.	.	8b-/)	.	8gg\)	.	.	.	.	.	.	.
8C/	.	4g\	.	4r	.	4r	.	.	.	4B-\	.	.	.
8C/J	.	.	.	.	.	.	.	.	.	.	.	.	.
=14	=14	=14	=14	=14	=14	=14	=14	=14	=14	=14	=14	=14	=14
!	!	!	!	!	!	!LO:TX:a:t=|	!	!	!	!	!	!	!
8r	.	8r	.	8en/	f	8g/	f	2.ryy	2.ryy	8r	.	2.ryy	2.ryy
!	!LO:DY:a	!LO:TX:a:t=|	!	!	!	!	!	!	!	!	!	!	!
8GG/	f	8g\L	.	4g/	p	(4b-\	p	.	.	8B-\L	f	.	.
!	!LO:DY:a	!	!	!	!	!	!	!	!	!	!	!	!
8G\L	p	(8b-\	.	.	.	.	.	.	.	8d\	.	.	.
8B-\	.	8g\	.	8b-/	.	8dd\)	.	.	.	8B-\	p	.	.
8A\	.	8f\	.	4r	.	4r	.	.	.	8A\	.	.	.
8G\J	.	8en\J)	.	.	.	.	.	.	.	8G\J	.	.	.
!LO:LB:g=original	!	!	!	!	!	!	!	!	!	!	!	!	!
=15	=15	=15	=15	=15	=15	=15	=15	=15	=15	=15	=15	=15	=15
!	!	!	!	!LO:TX:a:t=|	!	!LO:TX:a:t=|	!	!	!	!	!	!	!
8r	.	8r	.	8c/	f	8f/	f	2.ryy	2.ryy	8r	.	2.ryy	2.ryy
8F\	.	8f\L	.	(4f/	p	(4a/	p	.	.	8A\L	f	.	.
!LO:TX:a:t=problem&colon;kolejność znaków BB- E-	!	!	!	!	!	!	!	!	!	!	!	!	!
8F\L	.	(8a\	.	.	.	.	.	.	.	8c\	.	.	.
8A\	.	8c\	.	8a/)	.	8cc/)	.	.	.	8A\	p	.	.
8G\	.	8B-\	.	4r	.	4r	.	.	.	8G\	.	.	.
8F\J	.	8A\J)	.	.	.	.	.	.	.	8F\J	.	.	.
=16	=16	=16	=16	=16	=16	=16	=16	=16	=16	=16	=16	=16	=16
!	!	!	!	!	!	!	!	!	!	!LO:TX:a:t=problem&colon;brak t. 16	!	!	!
8r	.	8r	.	8c/	.	8en/	f	2.ryy	2.ryy	2.ryy	.	2.ryy	2.ryy
!	!	!LO:TX:a:t=SIC&colon;s=8en	!	!	!	!	!	!	!	!	!	!	!
!	!	!LO:TX:a:t=|	!	!LO:TX:a:t=SIC&colon;s=4en	!	!	!LO:DY:b:t=pia	!	!	!	!	!	!
8C/	.	8e-\L	.	4d/	.	4g/	p	.	.	.	.	.	.
8C/L	.	(8g\	.	.	.	.	.	.	.	.	.	.	.
!	!	!LO:TX:a:t=SIC&colon;s=8en	!	!	!	!	!	!	!	!	!	!	!
8C/	.	8e-\	.	8g/	.	8b-/	.	.	.	.	.	.	.
8C/	.	8d\	.	4r	.	4r	.	.	.	.	.	.	.
8C/J	.	8c\J)	.	.	.	.	.	.	.	.	.	.	.
=17	=17	=17	=17	=17	=17	=17	=17	=17	=17	=17	=17	=17	=17
!	!	!	!	!LO:TX:a:t=problem&colon;niejednoznaczny zapis ozdobnika [przyjęto tryl]&colon;global	!	!LO:TX:a:t=problem&colon;niejednoznaczny zapis ozdobnika [przyjęto tryl]&colon;global	!	!	!	!	!	!	!
*Xtremolo	*	*	*	*	*	*	*	*	*	*	*	*	*
8F\L	.	8f\L	.	4at\	.	4at/	.	2.ryy	2.ryy	8F\L	.	2.ryy	2.ryy
8F\	.	8f\	.	.	.	.	.	.	.	8F\	.	.	.
8G\	.	8g\	.	4b-T\	.	4b-T/	.	.	.	8G\	f	.	.
8G\	.	8g\	.	.	.	.	.	.	.	8G\	.	.	.
8A\	.	8a\	.	4ccT\	.	4ccT/	.	.	.	8A\	p	.	.
!	!	!	!	!	!	!LO:LB:g=original	!	!	!	!	!	!	!
8A\J	.	8a\J	.	.	.	.	.	.	.	8A\J	.	.	.
!	!	!LO:LB:g=original	!	!	!	!	!	!	!	!	!	!	!
=18	=18	=18	=18	=18	=18	=18	=18	=18	=18	=18	=18	=18	=18
*tremolo	*	*	*	*	*	*	*	*	*	*	*	*	*
8B-\L	.	8b-\L	.	4ddt\	.	4ddt\	.	2.ryy	2.ryy	8B-\L	.	2.ryy	2.ryy
8B-\	.	8b-\	.	.	.	.	.	.	.	8B-\	.	.	.
8B-\	.	8cc\	.	4eent\	.	4eent\	.	.	.	8c\	.	.	.
8B-\	.	8cc\	.	.	.	.	.	.	.	8c\	.	.	.
8B-\	.	8dd\	.	4ffT\	.	4ffT\	.	.	.	8d\	.	.	.
8B-\J	.	8dd\J	.	.	.	.	.	.	.	8d\J	.	.	.
=19	=19	=19	=19	=19	=19	=19	=19	=19	=19	=19	=19	=19	=19
!	!	!	!	!	!	!	!	!	!	!LO:TX:a:t=SIC&colon;s=4en	!	!	!
4B-\	.	4een\	.	4ggT\	.	4gg\	.	2.ryy	2.ryy	4e-\	.	2.ryy	2.ryy
4r	.	4r	.	4r	.	4r	.	.	.	4r	.	.	.
!	!	!	!	!LO:N:vis=4	!	!	!	!	!	!	!	!	!
4r	.	4r	.	8r	.	8r	.	.	.	4r	.	.	.
.	.	.	.	16r	.	16r	.	.	.	.	.	.	.
.	.	.	.	16cc\	.	16ee-X\	.	.	.	.	.	.	.
=20	=20	=20	=20	=20	=20	=20	=20	=20	=20	=20	=20	=20	=20
8r	.	8r	.	8b-\L	.	8dd\L	.	2.ryy	2.ryy	8r	.	2.ryy	2.ryy
8BB-/	.	8d\	.	8dd\J	.	8ff\J	.	.	.	8B-\	.	.	.
8C/L	.	4e-\	.	8r	.	4a/	.	.	.	4A\	.	.	.
!	!	!	!	!LO:LB:g=original	!	!	!	!	!	!	!	!	!
!	!	!	!	!LO:TX:a:t=problem&colon;niejednoznaczny zapis łuk/ligatura	!	!	!	!	!	!	!	!	!
8C/	.	.	.	(4en/	.	.	.	.	.	.	.	.	.
8C/	.	4en\	.	.	.	4gT/	.	.	.	4GT\	.	.	.
8C/J	.	.	.	8e/)	.	.	.	.	.	.	.	.	.
=21	=21	=21	=21	=21	=21	=21	=21	=21	=21	=21	=21	=21	=21
!	!	!	!	!	!	!	!LO:DY:b:t=for	!	!	!	!	!	!
8r	.	4A/	.	8f/	.	8f/	f	2.ryy	2.ryy	4F\	.	2.ryy	2.ryy
!	!	!	!	!	!	!	!LO:DY:b:t=pia	!	!	!	!	!	!
8F\	.	.	.	8r	.	4ff\	p	.	.	.	.	.	.
8G\L	.	4A/	.	4r	.	.	.	.	.	4F\	.	.	.
8A\	.	.	.	.	.	8ff\	.	.	.	.	.	.	.
8B-\	.	4r	.	4r	.	(16ff\LL	.	.	.	4r	.	.	.
.	.	.	.	.	.	16gg\	.	.	.	.	.	.	.
8c\J	.	.	.	.	.	16gg\	.	.	.	.	.	.	.
.	.	.	.	.	.	16aa\JJ)	.	.	.	.	.	.	.
=22	=22	=22	=22	=22	=22	=22	=22	=22	=22	=22	=22	=22	=22
!	!	!	!	!	!	!	!LO:DY:b:t=for	!	!	!	!	!	!
8r	.	4f\	.	8ff\	f	8aa\	f	2.ryy	2.ryy	4A\	.	2.ryy	2.ryy
!	!	!	!	!	!	!	!LO:DY:b:t=pia	!	!	!	!	!	!
8d\	.	.	.	4ff\	p	4gg\	p	.	.	.	.	.	.
8c\L	.	4f\	.	.	.	.	.	.	.	4A\	.	.	.
8B-\	.	.	.	8ff\	.	8aa\	.	.	.	.	.	.	.
8A\	.	4r	.	16ff\LL	.	16aa\LL	.	.	.	4r	.	.	.
.	.	.	.	16gg\	.	16bb-\	.	.	.	.	.	.	.
8G\J	.	.	.	16gg\	.	16bb-\	.	.	.	.	.	.	.
!LO:LB:g=original	!	!	!	!	!	!	!	!	!	!	!	!	!
.	.	.	.	16aa\JJ	.	16ccc\JJ	.	.	.	.	.	.	.
=23	=23	=23	=23	=23	=23	=23	=23	=23	=23	=23	=23	=23	=23
!	!	!	!	!	!	!	!LO:DY:b:t=for	!	!	!	!	!	!
8r	.	4a\	.	8aa\	.	8ccc\	f	2.ryy	2.ryy	4c\	.	2.ryy	2.ryy
!	!	!	!	!	!	!	!LO:DY:b:t=pia	!	!	!	!	!	!
8F\	.	.	.	4aa\	.	4ccc\	p	.	.	.	.	.	.
8G\L	.	4a\	.	.	.	.	.	.	.	4c\	.	.	.
8A\	.	.	.	16bb-\LL	.	16eee-\LL	.	.	.	.	.	.	.
.	.	.	.	16aa\JJ	.	16ccc\JJ	.	.	.	.	.	.	.
!	!	!	!	!	!	!LO:LB:g=original	!	!	!	!	!	!	!
8B-\	.	4r	.	(16gg\LL	.	16bb-\LL	.	.	.	4r	.	.	.
!	!	!	!	!	!	!	!	!	!	!LO:LB:g=original	!	!	!
.	.	.	.	16ff\	.	16aa\	.	.	.	.	.	.	.
8c\J	.	.	.	16een\	.	16gg\	.	.	.	.	.	.	.
.	.	.	.	16dd\JJ)	.	16ff\JJ	.	.	.	.	.	.	.
=24	=24	=24	=24	=24	=24	=24	=24	=24	=24	=24	=24	=24	=24
!	!	!	!	!	!	!	!LO:DY:b:t=for	!	!	!	!	!	!
8r	.	8r	.	(16cc\LL	.	(16een\LL	f	2.ryy	2.ryy	8r	.	2.ryy	2.ryy
.	.	.	.	16dd\	.	16ff\	.	.	.	.	.	.	.
8d\	.	8d\	.	16b-\	.	16dd\	.	.	.	8B-\	.	.	.
!	!	!	!	!	!	!	!LO:DY:b:t=pia	!	!	!	!	!	!
.	.	.	.	16g\JJ)	.	16b-\JJ)	p	.	.	.	.	.	.
.	.	.	.	8qqd/	.	.	.	.	.	.	.	.	.
8c\L	.	4f\	.	4c/	.	4c/	.	.	.	4A\	.	.	.
8B-\	.	.	.	.	.	.	.	.	.	.	.	.	.
8c\	.	4en\	.	4g/	.	4gT/	.	.	.	4G\	.	.	.
8C/J	.	.	.	.	.	.	.	.	.	.	.	.	.
=25	=25	=25	=25	=25	=25	=25	=25	=25	=25	=25	=25	=25	=25
!	!	!	!	!	!	!	!LO:DY:a	!	!	!	!	!	!
8r	.	4A/	.	8f/	.	8f/	f	2.ryy	2.ryy	4F\	.	2.ryy	2.ryy
!	!	!	!	!	!	!	!LO:DY:a:t=pia	!	!	!	!	!	!
8F\	.	.	.	8r	.	4ff\	p	.	.	.	.	.	.
8G\L	.	4A/	.	4r	.	.	.	.	.	4F\	.	.	.
8A\	.	.	.	.	.	8ff\	.	.	.	.	.	.	.
8B-\	.	4r	.	4r	.	16ff\LL	.	.	.	4r	.	.	.
.	.	.	.	.	.	16gg\	.	.	.	.	.	.	.
8c\J	.	.	.	.	.	16gg\	.	.	.	.	.	.	.
.	.	.	.	.	.	16aa\JJ	.	.	.	.	.	.	.
=26	=26	=26	=26	=26	=26	=26	=26	=26	=26	=26	=26	=26	=26
8r	.	4f\	.	8ff\	.	8aa\	f	2.ryy	2.ryy	4A\	.	2.ryy	2.ryy
!	!	!	!	!	!	!	!LO:DY:b:t=pia	!	!	!	!	!	!
8d\	.	.	.	4ff\	.	4gg\	p	.	.	.	.	.	.
8c\L	.	4f\	.	.	.	.	.	.	.	4A\	.	.	.
8B-\	.	.	.	8ff\	.	8aa\	.	.	.	.	.	.	.
!	!	!	!	!LO:LB:g=original	!	!	!	!	!	!	!	!	!
8A\	.	4r	.	16ff\LL	.	16aa\LL	.	.	.	4r	.	.	.
.	.	.	.	16gg\	.	16bb-\	.	.	.	.	.	.	.
8G\J	.	.	.	16gg\	.	16bb-\	.	.	.	.	.	.	.
.	.	.	.	16aa\JJ	.	16ccc\JJ	.	.	.	.	.	.	.
=27	=27	=27	=27	=27	=27	=27	=27	=27	=27	=27	=27	=27	=27
8r	.	4a\	.	8aa\	.	8ccc\	.	2.ryy	2.ryy	4c\	.	2.ryy	2.ryy
8F\	.	.	.	4aa\	.	4ccc\	.	.	.	.	.	.	.
8G\L	.	4a\	.	.	.	.	.	.	.	4c\	.	.	.
8A\	.	.	.	16bb-\LL	.	16ddd\LL	.	.	.	.	.	.	.
.	.	.	.	16aa\JJ	.	16ccc\JJ	.	.	.	.	.	.	.
8B-\	.	4r	.	16gg\LL	.	(16bb-\LL	.	.	.	4r	.	.	.
!	!	!LO:LB:g=original	!	!	!	!	!	!	!	!	!	!	!
.	.	.	.	16ff\	.	16aa\	.	.	.	.	.	.	.
8c\J	.	.	.	16een\	.	16gg\	.	.	.	.	.	.	.
.	.	.	.	16dd\JJ	.	16ff\JJ)	.	.	.	.	.	.	.
=28	=28	=28	=28	=28	=28	=28	=28	=28	=28	=28	=28	=28	=28
!	!	!	!	!	!	!	!LO:DY:b:t=for	!	!	!	!	!	!
8r	.	8r	.	16b-\LL	.	(16een\LL	f	2.ryy	2.ryy	8r	.	2.ryy	2.ryy
.	.	.	.	16dd\	.	16ff\	.	.	.	.	.	.	.
8d\	.	8d\	.	16b-\	.	16dd\	.	.	.	8B-\	.	.	.
.	.	.	.	16g\JJ	.	16b-\JJ)	.	.	.	.	.	.	.
!	!	!	!	!	!	!	!LO:DY:a	!	!	!	!	!	!
8c\L	.	4f\	.	4c/	.	4a/	p	.	.	4A\	.	.	.
!	!	!	!	!	!	!LO:LB:g=original	!	!	!	!	!	!	!
8B-\	.	.	.	.	.	.	.	.	.	.	.	.	.
8c\	.	4en\	.	4gT/	.	4g/	.	.	.	4G\	.	.	.
8A\J	.	.	.	.	.	.	.	.	.	.	.	.	.
!LO:LB:g=original	!	!	!	!	!	!	!	!	!	!	!	!	!
=29	=29	=29	=29	=29	=29	=29	=29	=29	=29	=29	=29	=29	=29
!	!	!	!	!	!LO:DY:a	!	!	!	!	!	!	!	!
8r	.	8r	.	8f/	f	8f/	f	2.ryy	2.ryy	8r	.	2.ryy	2.ryy
!	!LO:DY:a	!	!	!	!	!LO:TX:a:t=SIC&colon;s=8a	!	!	!	!	!	!	!
8F\	f	4a\	.	8a/L	p	8g/L	p	.	.	4c\	.	.	.
!	!LO:DY:a	!	!	!	!	!LO:TX:a:t=SIC&colon;s=8cc	!	!	!	!	!	!	!
8F\L	p	.	.	8cc/	.	8a/	.	.	.	.	.	.	.
8F\	.	8b-\L	.	8ff/J	.	8ff/J	.	.	.	8d\L	.	.	.
8F\	.	8a\	.	4r	.	4r	.	.	.	8c\	.	.	.
8F\J	.	8g\J	.	.	.	.	.	.	.	8B-\J	.	.	.
=30	=30	=30	=30	=30	=30	=30	=30	=30	=30	=30	=30	=30	=30
!	!	!	!	!	!	!LO:TX:a:t=problem&colon;skreślony takt	!	!	!	!	!	!	!
8r	.	8f\	.	8f/	.	8f/	f	2.ryy	2.ryy	8A\	.	2.ryy	2.ryy
!	!	!	!	!	!	!	!LO:DY:b:t=pia	!	!	!	!	!	!
8F\	.	4a\	.	8a/L	.	8a/L	p	.	.	4c\	.	.	.
8F\L	.	.	.	8cc/	.	8cc/	.	.	.	.	.	.	.
8F\	.	(8b-\L	.	8ff/J	.	8ff/J	.	.	.	8d\L	.	.	.
8F\	.	8a\	.	4r	.	4r	.	.	.	8c\	.	.	.
8F\J	.	8g\J)	.	.	.	.	.	.	.	8B-\J	.	.	.
=31	=31	=31	=31	=31	=31	=31	=31	=31	=31	=31	=31	=31	=31
4F\	.	4f\	.	4f/	.	4f/	.	2.ryy	2.ryy	4A\	.	2.ryy	2.ryy
4r	.	4r	.	4r	.	4r	.	.	.	4r	.	.	.
4r	.	4r	.	4r	.	4r	.	.	.	4r	.	.	.
=32:|!|:	=32:|!|:	=32:|!|:	=32:|!|:	=32:|!|:	=32:|!|:	=32:|!|:	=32:|!|:	=32:|!|:	=32:|!|:	=32:|!|:	=32:|!|:	=32:|!|:	=32:|!|:
!	!	!	!	!	!LO:DY:a	!	!LO:DY:b:t=for	!	!	!	!	!	!
8r	.	4r	.	8ff\	f	8ff\	f	2.ryy	2.ryy	4r	.	2.ryy	2.ryy
!	!LO:DY:a	!	!	!	!LO:DY:a	!	!LO:DY:b:t=pia	!	!	!	!	!	!
8F\	f	.	.	4ff\	p	4ff\	p	.	.	.	.	.	.
!	!LO:DY:a	!	!	!	!	!	!	!	!	!	!	!	!
8F\L	p	4dd\	.	.	.	.	.	.	.	4d\	f	.	.
8E-\	.	.	.	8ff\	.	8ff\	.	.	.	.	.	.	.
!	!	!	!	!LO:LB:g=original	!	!	!	!	!	!	!	!	!
8D\	.	4cc\	.	16ff\LL	.	16ff\LL	.	.	.	4c\	p	.	.
.	.	.	.	16gg\	.	16gg\	.	.	.	.	.	.	.
8C\J	.	.	.	16gg\	.	16gg\	.	.	.	.	.	.	.
.	.	.	.	16aa-X\JJ	.	16aa-X\JJ	.	.	.	.	.	.	.
=33	=33	=33	=33	=33	=33	=33	=33	=33	=33	=33	=33	=33	=33
!	!	!	!	!LO:TX:a:t=SIC&colon;s=8aa-	!	!LO:TX:a:t=SIC&colon;s=8aa-	!	!	!	!	!	!	!
8r	.	4bn\	.	8aa\	.	8aa\	f	2.ryy	2.ryy	4Bn\	f	2.ryy	2.ryy
!	!	!	!	!	!	!	!LO:DY:b:t=pia	!	!	!	!	!	!
8D/	.	.	.	4bn\	.	4bn\	p	.	.	.	.	.	.
8D/L	.	4a-X\	.	.	.	.	.	.	.	4A-X\	.	.	.
8C/	.	.	.	8b\	.	8b\	.	.	.	.	.	.	.
!	!	!	!	!	!	!LO:LB:g=original	!	!	!	!	!	!	!
8BBn/	.	4g\	.	16b\LL	.	(16bn\LL	.	.	.	4G\	p	.	.
.	.	.	.	16cc\	.	16cc\	.	.	.	.	.	.	.
!LO:TX:a:t=gis	!	!	!	!	!	!	!	!	!	!	!	!	!
8AA-X/J	.	.	.	16cc\	.	16cc\	.	.	.	.	.	.	.
.	.	.	.	16dd\JJ	.	16dd\JJ)	.	.	.	.	.	.	.
=34	=34	=34	=34	=34	=34	=34	=34	=34	=34	=34	=34	=34	=34
!	!	!	!	!	!	!	!LO:DY:b:t=for	!	!	!	!	!	!
8r	.	4f\	.	8dd\	.	8dd\	f	2.ryy	2.ryy	4F\	f	2.ryy	2.ryy
!	!LO:DY:a	!	!	!	!	!	!LO:DY:b:t=pia	!	!	!	!	!	!
8BBn/	f	.	.	4a-X/	.	4a-X/	p	.	.	.	.	.	.
!	!LO:DY:a	!	!	!	!	!	!	!	!	!	!	!	!
8C/L	p	4e-\	.	.	.	.	.	.	.	4E-\	.	.	.
8D/	.	.	.	4g/	.	4g/	.	.	.	.	.	.	.
8E-/	.	4d\	.	.	.	.	.	.	.	4D\	p	.	.
8F/J	.	.	.	8f/	.	8f/	.	.	.	.	.	.	.
=35	=35	=35	=35	=35	=35	=35	=35	=35	=35	=35	=35	=35	=35
!	!LO:DY:a	!	!	!	!	!	!	!	!	!	!	!	!
8r	f	4c\	.	16f/LL	.	16f/LL	.	2.ryy	2.ryy	4E-\	.	2.ryy	2.ryy
!	!	!	!	!	!	!	!LO:DY:b:t=for	!	!	!	!	!	!
.	.	.	.	16e-/	.	16e-/	f	.	.	.	.	.	.
8G\	.	.	.	16g/	.	16cc/	.	.	.	.	.	.	.
.	.	.	.	16cc/JJ	.	16ee-/JJ	.	.	.	.	.	.	.
!	!LO:DY:a	!	!	!	!	!	!LO:DY:b:t=pia	!	!	!	!	!	!
8E-/L	p	8r	.	4.g/	.	4.g/	p	.	.	8r	.	.	.
8C/	.	8e-\L	.	.	.	.	.	.	.	8G	.	.	.
!	!	!	!	!	!	!	!	!	!	!LO:LB:g=original	!	!	!
8BBn/	.	8e-\	.	.	.	.	.	.	.	8G\L	.	.	.
8GG/J	.	8d\J	.	8e-/	.	8f/	.	.	.	8F\J	.	.	.
=36	=36	=36	=36	=36	=36	=36	=36	=36	=36	=36	=36	=36	=36
!	!	!	!	!LO:TX:a:t=problem&colon;powtórzenie t. 35 oznaczone znakami repetycji	!	!	!LO:DY:b:t=for	!	!	!	!	!	!
8r	.	4c\	.	16f/LL	.	16f/LL	f	2.ryy	2.ryy	4E-\	.	2.ryy	2.ryy
.	.	.	.	16e-/	.	16e-/	.	.	.	.	.	.	.
!	!LO:DY:a	!	!	!	!	!	!LO:DY:b:t=pia	!	!	!	!	!	!
8G\	f	.	.	16g/	.	16cc/	p	.	.	.	.	.	.
!LO:LB:g=original	!	!	!	!	!	!	!	!	!	!	!	!	!
.	.	.	.	16cc/JJ	.	16ee-/JJ	.	.	.	.	.	.	.
!	!LO:DY:a	!	!	!	!	!	!	!	!	!	!	!	!
8E-\L	p	8r	.	4.g/	.	4.g/	.	.	.	8r	.	.	.
8C\	.	8e-\L	.	.	.	.	.	.	.	8G\L	.	.	.
8BBn\	.	8e-\	.	.	.	.	.	.	.	8G\	.	.	.
8GG\J	.	8d\J	.	8e-/	.	8f/	.	.	.	8F\J	.	.	.
=37	=37	=37	=37	=37	=37	=37	=37	=37	=37	=37	=37	=37	=37
8r	.	4c\	.	8e-/	.	8e-/	.	2.ryy	2.ryy	4F\	.	2.ryy	2.ryy
!	!LO:DY:a	!	!	!	!	!	!	!	!	!	!	!	!
8C/	f	.	.	4ee-\	.	4ee-\	.	.	.	.	.	.	.
!	!LO:DY:a	!	!	!	!	!	!	!	!	!	!	!	!
8E-/L	p	4cc\	.	.	.	.	.	.	.	4c\	.	.	.
8D/	.	.	.	8ee-\	.	8ee-\	.	.	.	.	.	.	.
8C/	.	4b-\	.	16ee-\LL	.	(16ee-\LL	.	.	.	4B-\	.	.	.
.	.	.	.	16ff\	.	16ff\	.	.	.	.	.	.	.
8BB-X/J	.	.	.	16ff\	.	16ff\	.	.	.	.	.	.	.
.	.	.	.	16gg\JJ	.	16gg\JJ)	.	.	.	.	.	.	.
=38	=38	=38	=38	=38	=38	=38	=38	=38	=38	=38	=38	=38	=38
!	!	!	!	!	!	!	!LO:DY:a:t=for	!	!	!	!	!	!
8r	.	4a\	.	8gg\	.	8gg\	f	2.ryy	2.ryy	4A\	.	2.ryy	2.ryy
!	!LO:DY:a	!	!	!	!	!	!LO:DY:a:t=pia	!	!	!	!	!	!
8C/	f	.	.	4a/	.	4a/	p	.	.	.	.	.	.
!	!LO:DY:a	!	!	!	!	!	!	!	!	!	!	!	!
8C/L	p	4g\	.	.	.	.	.	.	.	4G\	.	.	.
8BB-/	.	.	.	8a/	.	8a/	.	.	.	.	.	.	.
8AA/	.	4f\	.	16a/LL	.	(16a\LL	.	.	.	4F\	.	.	.
!	!	!LO:LB:g=original	!	!	!	!	!	!	!	!	!	!	!
.	.	.	.	16b-/	.	16b-\	.	.	.	.	.	.	.
8GG/J	.	.	.	16b-/	.	16b-\	.	.	.	.	.	.	.
.	.	.	.	16cc/JJ	.	16cc\JJ)	.	.	.	.	.	.	.
!	!	!	!	!LO:LB:g=original	!	!LO:LB:g=original	!	!	!	!	!	!	!
=39	=39	=39	=39	=39	=39	=39	=39	=39	=39	=39	=39	=39	=39
!	!	!	!	!	!	!	!LO:DY:a	!	!	!	!	!	!
8r	.	4e-\	.	8cc\	.	8cc\	f	2.ryy	2.ryy	4E-\	.	2.ryy	2.ryy
!	!	!	!	!	!	!	!LO:DY:a	!	!	!	!	!	!
8AA/	.	.	.	4g/	.	4g/	p	.	.	.	.	.	.
8BB-/L	.	4d\	.	.	.	.	.	.	.	4D\	.	.	.
8C/	.	.	.	4f/	.	4f/	.	.	.	.	.	.	.
8D/	.	4c\	.	.	.	.	.	.	.	4C\	.	.	.
8E-/J	.	.	.	8e-/	.	8e-/	.	.	.	.	.	.	.
=40	=40	=40	=40	=40	=40	=40	=40	=40	=40	=40	=40	=40	=40
8r	.	4B-/	.	16e-/LL	.	16e-/LL	f	2.ryy	2.ryy	4D\	.	2.ryy	2.ryy
.	.	.	.	16d/	.	16d/	.	.	.	.	.	.	.
8F\	.	.	.	16f/	.	16f/	.	.	.	.	.	.	.
.	.	.	.	16b-/JJ	.	16b-/JJ	.	.	.	.	.	.	.
!	!	!	!	!	!	!	!LO:DY:b:t=pia	!	!	!	!	!	!
8D/L	.	8r	.	4.f/	.	4.f/	p	.	.	8r	.	.	.
!	!	!LO:TX:a:t=|	!	!	!	!	!	!	!	!	!	!	!
8BB-/	.	8d\L	.	.	.	.	.	.	.	8F\L	.	.	.
8AA/	.	(8d\	.	.	.	.	.	.	.	8F\	.	.	.
8FF/J	.	8c\J)	.	8e-/	.	8e-/	.	.	.	8E-\J	.	.	.
=41	=41	=41	=41	=41	=41	=41	=41	=41	=41	=41	=41	=41	=41
!	!	!	!	!	!	!	!LO:DY:b:t=for	!	!	!	!	!	!
8r	.	4B-/	.	16e-/LL	.	16e-/LL	f	2.ryy	2.ryy	4D\	.	2.ryy	2.ryy
.	.	.	.	16d/	.	16d/	.	.	.	.	.	.	.
8F\	.	.	.	16f/	.	16f/	.	.	.	.	.	.	.
!	!	!	!	!	!	!	!LO:DY:b:t=pia	!	!	!	!	!	!
.	.	.	.	16b-/JJ	.	16b-/JJ	p	.	.	.	.	.	.
8D/L	.	8r	.	4.f/	.	4.f/	.	.	.	8r	.	.	.
!	!	!LO:TX:a:t=|	!	!	!	!	!	!	!	!	!	!	!
8BB-/	.	8d\L	.	.	.	.	.	.	.	8F\L	.	.	.
8AA/	.	(8d\	.	.	.	.	.	.	.	8F\	.	.	.
8FF/J	.	8c\J)	.	8e-/	.	8e-/	.	.	.	8E-\J	.	.	.
=42	=42	=42	=42	=42	=42	=42	=42	=42	=42	=42	=42	=42	=42
8r	.	2.B-/	.	8d/	.	8d/	.	2.ryy	2.ryy	4D\	.	2.ryy	2.ryy
8BB-/	.	.	.	16d/LL	.	16d/LL	.	.	.	.	.	.	.
.	.	.	.	16e-/JJ	.	16e-/JJ	.	.	.	.	.	.	.
8C/L	.	.	.	(16e-/LL	.	(16e-/LL	.	.	.	4B-\	.	.	.
.	.	.	.	16f/	.	16f/	.	.	.	.	.	.	.
8D/	.	.	.	16f/	.	16f/	.	.	.	.	.	.	.
.	.	.	.	16g/JJ)	.	16g/JJ)	.	.	.	.	.	.	.
8E-/	.	.	.	(16g/LL	.	(16g/LL	.	.	.	4A-X\	.	.	.
!	!	!	!	!LO:TX:a:t=SIC&colon;s=16a-	!	!	!	!	!	!	!	!	!
.	.	.	.	16a/	.	16a-X/	.	.	.	.	.	.	.
!	!	!	!	!LO:TX:a:t=SIC&colon;s=16a-	!	!	!	!	!	!	!	!	!
8F/J	.	.	.	16a/	.	16a-/	.	.	.	.	.	.	.
.	.	.	.	16b-/JJ)	.	16b-/JJ)	.	.	.	.	.	.	.
=43	=43	=43	=43	=43	=43	=43	=43	=43	=43	=43	=43	=43	=43
!	!	!	!	!LO:TX:a:t=|	!	!	!LO:DY:a	!	!	!	!	!	!
8G\L	.	4B-/	.	8b-\	.	8b-\	f	2.ryy	2.ryy	4G\	.	2.ryy	2.ryy
!	!	!	!	!	!	!	!LO:DY:a	!	!	!	!	!	!
8A-X\J	.	.	.	16b-\LL	.	16b-\LL	p	.	.	.	.	.	.
!LO:LB:g=original	!	!	!	!	!	!	!	!	!	!	!	!	!
.	.	.	.	16cc\JJ	.	16cc\JJ	.	.	.	.	.	.	.
8B-\L	.	4A-X/	.	16cc\LL	.	(16cc\LL	.	.	.	4F\	.	.	.
.	.	.	.	16dd\	.	16dd\	.	.	.	.	.	.	.
8BB-/J	.	.	.	16dd\	.	16dd\	.	.	.	.	.	.	.
.	.	.	.	16ee-\JJ	.	16ee-\JJ)	.	.	.	.	.	.	.
4D\	.	4G/	.	4ee-\	.	4ee-\	.	.	.	4E-\	.	.	.
=44	=44	=44	=44	=44	=44	=44	=44	=44	=44	=44	=44	=44	=44
!	!	!	!	!	!	!	!LO:DY:a:t=for	!	!	!	!	!	!
8r	.	2.c/	.	8en/	.	8en/	f	2.ryy	2.ryy	4En\	.	2.ryy	2.ryy
!	!	!	!	!	!	!LO:LB:g=original	!LO:DY:a	!	!	!	!	!	!
!	!	!	!	!	!	!	!LO:DY:b:t=pia	!	!	!	!	!	!
8C/	.	.	.	16e/LL	.	16en/LL	p	.	.	.	.	.	.
.	.	.	.	16f/JJ	.	16f/JJ	.	.	.	.	.	.	.
!	!	!	!	!LO:LB:g=original	!	!	!	!	!	!	!	!	!
8D\L	.	.	.	16f/LL	.	(16f/LL	.	.	.	4c\	.	.	.
.	.	.	.	16g/	.	16g/	.	.	.	.	.	.	.
8En\	.	.	.	16g/	.	16g/	.	.	.	.	.	.	.
.	.	.	.	16an/JJ	.	16a/JJ)	.	.	.	.	.	.	.
8F\	.	.	.	16a/LL	.	(16a/LL	.	.	.	4B-\	.	.	.
.	.	.	.	16b-/	.	16b-/	.	.	.	.	.	.	.
8G\J	.	.	.	16b-/	.	16b-/	.	.	.	.	.	.	.
.	.	.	.	16cc/JJ	.	16cc/JJ)	.	.	.	.	.	.	.
=45	=45	=45	=45	=45	=45	=45	=45	=45	=45	=45	=45	=45	=45
8A\L	.	4c/	.	8cc\	.	8cc\	f	2.ryy	2.ryy	4A\	.	2.ryy	2.ryy
!	!	!	!	!	!	!	!LO:DY:b:t=pia	!	!	!	!	!	!
8B-\	.	.	.	16cc\LL	.	16cc\LL	p	.	.	.	.	.	.
.	.	.	.	16dd\JJ	.	16dd\JJ	.	.	.	.	.	.	.
8c\	.	4B-/	.	(16dd\LL	.	(16dd\LL	.	.	.	4G\	.	.	.
!	!	!	!	!	!	!LO:TX:a:t=SIC&colon;s=16een	!	!	!	!	!	!	!
.	.	.	.	16een\	.	16ee-\	.	.	.	.	.	.	.
!	!	!	!	!	!	!LO:TX:a:t=SIC&colon;s=16een	!	!	!	!	!	!	!
8C/J	.	.	.	16ee\	.	16ee-\	.	.	.	.	.	.	.
.	.	.	.	16ff\JJ)	.	16ff\JJ)	.	.	.	.	.	.	.
4F\	.	4An/	.	4ff\	.	4ff\	.	.	.	4F\	.	.	.
=46	=46	=46	=46	=46	=46	=46	=46	=46	=46	=46	=46	=46	=46
!	!	!	!	!LO:TX:b:t=|	!LO:DY:a	!LO:TX:a:t=|	!	!	!	!	!	!	!
8r	.	8r	.	8f/	f	8a/	f	2.ryy	2.ryy	8r	.	2.ryy	2.ryy
!	!	!	!	!	!LO:DY:a	!	!LO:DY:b:t=pia	!	!	!	!	!	!
8FF/	.	(8a\L	.	(4a/	p	(4cc\	p	.	.	8c\L	.	.	.
8F\L	.	8cc\	.	.	.	.	.	.	.	8e-\	.	.	.
8A\	.	8e-\	.	8cc/)	.	8ee-\)	.	.	.	8c\	.	.	.
8G\	.	8d\	.	4r	.	4r	.	.	.	8B-\	.	.	.
8F\J	.	8c\J)	.	.	.	.	.	.	.	8A\J	.	.	.
!	!	!	!	!	!	!	!	!	!	!LO:LB:g=original	!	!	!
=47	=47	=47	=47	=47	=47	=47	=47	=47	=47	=47	=47	=47	=47
!	!	!	!	!LO:TX:b:t=|	!LO:DY:a	!LO:TX:a:t=|	!	!	!	!	!	!	!
8r	.	4d\	.	8d/	f	8b-\	f	2.ryy	2.ryy	4B-\	f	2.ryy	2.ryy
!	!	!	!	!	!LO:DY:a	!	!LO:DY:b:t=pia	!	!	!	!	!	!
8F\	.	.	.	(4b-\	p	(4dd\	p	.	.	.	.	.	.
8F\L	.	4e-\	.	.	.	.	.	.	.	4c\	.	.	.
8F\	.	.	.	8dd\)	.	8ff\)	.	.	.	.	.	.	.
8F\	.	4f\	.	4r	.	4r	.	.	.	4d\	p	.	.
8F\J	.	.	.	.	.	.	.	.	.	.	.	.	.
=48	=48	=48	=48	=48	=48	=48	=48	=48	=48	=48	=48	=48	=48
!	!	!	!	!	!LO:DY:a	!LO:TX:a:t=|	!	!	!	!	!	!	!
8r	.	8r	.	8d/	f	8b-\	f	2.ryy	2.ryy	8r	.	2.ryy	2.ryy
!	!	!LO:TX:a:t=SIC&colon;s=8b-	!	!	!LO:DY:a	!	!	!	!	!	!	!	!
8BB-/	.	8a\L	.	(4b-\	p	(4dd\	p	.	.	8d\L	.	.	.
8B-\L	.	8dd\	.	.	.	.	.	.	.	8f\	f	.	.
8d\	.	8f\	.	8dd\)	.	8ff\)	.	.	.	8d\	.	.	.
8c\	.	8e-\	.	4r	.	4r	.	.	.	8c\	p	.	.
8B-\J	.	8d\J	.	.	.	.	.	.	.	8B-\J	.	.	.
=49	=49	=49	=49	=49	=49	=49	=49	=49	=49	=49	=49	=49	=49
!	!	!	!	!LO:TX:a:t=|	!	!LO:TX:a:t=|	!	!	!	!	!	!	!
8r	.	4a\	.	8a\	.	8cc\	.	2.ryy	2.ryy	4c\	f	2.ryy	2.ryy
8F\	.	.	.	(4cc\	.	(4ee-\	.	.	.	.	.	.	.
8F\L	.	4b-\	.	.	.	.	.	.	.	4d\	p	.	.
!	!	!	!	!LO:TX:a:t=SIC&colon;s=8ee-	!	!	!	!	!	!	!	!	!
8F\	.	.	.	8ff\)	.	8gg\)	.	.	.	.	.	.	.
8F\	.	4cc\	.	4r	.	4r	.	.	.	4e-\	.	.	.
!	!	!LO:LB:g=original	!	!LO:LB:g=original	!	!LO:LB:g=original	!	!	!	!	!	!	!
8F\J	.	.	.	.	.	.	.	.	.	.	.	.	.
=50	=50	=50	=50	=50	=50	=50	=50	=50	=50	=50	=50	=50	=50
!LO:TX:a:t=problem&colon;nadmiarowy takt w vla	!	!LO:TX:a:t=problem&colon;zbędne powtórzenie t. 49	!	!LO:TX:a:t=problem&colon;nadmiarowy takt w vla	!	!LO:TX:a:t=problem&colon;nadmiarowy takt w vla	!	!	!	!LO:TX:a:t=problem&colon;nadmiarowy takt w vla	!	!	!
2.ryy	.	4a\	.	2.ryy	.	2.ryy	.	2.ryy	2.ryy	2.r	.	2.ryy	2.ryy
.	.	4b-\	.	.	.	.	.	.	.	.	.	.	.
.	.	4cc\	.	.	.	.	.	.	.	.	.	.	.
=51	=51	=51	=51	=51	=51	=51	=51	=51	=51	=51	=51	=51	=51
!	!	!	!	!	!	!LO:TX:a:t=|	!	!	!	!	!	!	!
8r	.	8r	.	8a/	.	8cc\	f	2.ryy	2.ryy	8r	.	2.ryy	2.ryy
8F\	.	(8cc\L	.	4cc\	.	(4ee-\	p	.	.	8e-\L	.	.	.
8F\L	.	8dd\	.	.	.	.	.	.	.	8g\	.	.	.
8F\	.	8cc\	.	8ee-\	.	8gg\)	.	.	.	8e-\	.	.	.
8F\	.	8b-\	.	4r	.	4r	.	.	.	8d\	.	.	.
8F\J	.	8a\J)	.	.	.	.	.	.	.	8c\J	.	.	.
!LO:LB:g=original	!	!	!	!	!	!	!	!	!	!	!	!	!
=52	=52	=52	=52	=52	=52	=52	=52	=52	=52	=52	=52	=52	=52
*Xtremolo	*	*	*	*	*	*	*	*	*	*	*	*	*
8BB-/L	.	8b-\L	.	4ddt\	.	4dd\	.	2.ryy	2.ryy	8B-\L	.	2.ryy	2.ryy
8BB-/	.	8B-/	.	.	.	.	.	.	.	8BB-/	.	.	.
8C/	.	8c/	.	4ee-T\	.	4ee-\	.	.	.	8C/	.	.	.
!	!	!	!	!	!	!	!	!	!	!LO:TX:a:t=SIC&colon;s=8C	!	!	!
8C/	.	8c/	.	.	.	.	.	.	.	8D/	.	.	.
8D/	.	8d/	.	4ffT\	.	4ff\	.	.	.	8D/	.	.	.
8D/J	.	8d/J	.	.	.	.	.	.	.	8D/J	.	.	.
=53	=53	=53	=53	=53	=53	=53	=53	=53	=53	=53	=53	=53	=53
*tremolo	*	*	*	*	*	*	*	*	*	*	*	*	*
8E-\L	.	8e-\L	.	4ggT\	.	4gg\	.	2.ryy	2.ryy	8E-\L	.	2.ryy	2.ryy
8E-\	.	8e-\	.	.	.	.	.	.	.	8E-\	.	.	.
8E-\	.	8f\	.	4aat\	.	4aa\	.	.	.	8F\	.	.	.
8E-\	.	8f\	.	.	.	.	.	.	.	8F\	.	.	.
8E-\	.	8g\	.	4bb-T\	.	4bb-\	.	.	.	8G\	.	.	.
8E-\J	.	8g\J	.	.	.	.	.	.	.	8G\J	.	.	.
=54	=54	=54	=54	=54	=54	=54	=54	=54	=54	=54	=54	=54	=54
4E-\	.	4a\	.	4ccc\	.	4ccc\	.	2.ryy	2.ryy	4A\	.	2.ryy	2.ryy
4r	.	4r	.	4r	.	4r	.	.	.	4r	.	.	.
4r	.	4r	.	8r	.	8r	.	.	.	4r	.	.	.
.	.	.	.	16r	.	16r	.	.	.	.	.	.	.
.	.	.	.	16ff\	.	16aa-X\	.	.	.	.	.	.	.
=55	=55	=55	=55	=55	=55	=55	=55	=55	=55	=55	=55	=55	=55
8r	.	8r	.	8ee-\L	.	8gg\L	.	2.ryy	2.ryy	8r	.	2.ryy	2.ryy
8F\	.	8g\	.	8gg\J	.	8bb-\J	.	.	.	8e-\	.	.	.
8F\L	.	4b-\	.	4b-\	.	4dd\	.	.	.	4d\	.	.	.
8F\	.	.	.	.	.	.	.	.	.	.	.	.	.
8F\	.	4a\	.	4at\	.	4ccT\	.	.	.	4c\	.	.	.
8F\J	.	.	.	.	.	.	.	.	.	.	.	.	.
=56	=56	=56	=56	=56	=56	=56	=56	=56	=56	=56	=56	=56	=56
8r	.	4b-\	.	8c/	.	8b-\	f	2.ryy	2.ryy	4B-\	.	2.ryy	2.ryy
8BB-/	.	.	.	4d/	.	4b-\	p	.	.	.	.	.	.
8BB-/L	.	8r	.	.	.	.	.	.	.	8r	.	.	.
8BB-/	.	(8f\L	.	8d/	.	8b-\	.	.	.	8d\L	.	.	.
8BB-/	.	8e-\	.	(16f/LL	.	(16dd\LL	.	.	.	8c\	.	.	.
.	.	.	.	16e-/	.	16cc\	.	.	.	.	.	.	.
8BB-/J	.	8d\J)	.	16e-/	.	16cc\	.	.	.	8B-\J	.	.	.
.	.	.	.	16d/JJ)	.	16b-\JJ)	.	.	.	.	.	.	.
=57	=57	=57	=57	=57	=57	=57	=57	=57	=57	=57	=57	=57	=57
!	!	!	!	!	!LO:DY:a	!	!	!	!	!	!	!	!
8r	.	4c\	.	8c/	f	8a/	f	2.ryy	2.ryy	4A\	.	2.ryy	2.ryy
!	!	!	!	!	!LO:DY:a	!	!LO:DY:b:t=pia	!	!	!	!	!	!
8F\	.	.	.	4c/	p	4a/	p	.	.	.	.	.	.
8F\L	.	4c\	.	.	.	.	.	.	.	4A\	.	.	.
8F\	.	.	.	4c/	.	8a/	.	.	.	.	.	.	.
8F\	.	4r	.	.	.	8a/L	.	.	.	4r	.	.	.
!	!	!	!	!	!	!	!	!	!	!LO:LB:g=original	!	!	!
8F\J	.	.	.	8c/	.	8a/J	.	.	.	.	.	.	.
!	!	!	!	!	!	!LO:LB:g=original	!	!	!	!	!	!	!
=58	=58	=58	=58	=58	=58	=58	=58	=58	=58	=58	=58	=58	=58
!	!	!	!	!	!LO:DY:a	!	!	!	!	!	!	!	!
8r	.	4r	.	8e-/	f	8cc\	.	2.ryy	2.ryy	4r	.	2.ryy	2.ryy
!	!	!	!	!LO:LB:g=original	!LO:DY:a	!LO:TX:a:t=problem&colon;niejednoznaczny zapis łuk/ligatura [przyjęto łuk]	!	!	!	!	!	!	!
8F\	.	.	.	4e-/	p	(4cc\	.	.	.	.	.	.	.
8F\L	.	8r	.	.	.	.	.	.	.	8r	.	.	.
8F\	.	(8g\L	.	4e-/	.	8cc\)	.	.	.	8e-\	.	.	.
8F\	.	8f\	.	.	.	(16ee-\LL	.	.	.	8d\L	.	.	.
.	.	.	.	.	.	16dd\	.	.	.	.	.	.	.
8F\J	.	8e-\J)	.	8e-/	.	16dd\	.	.	.	8c\J	.	.	.
!	!	!LO:LB:g=original	!	!	!	!	!	!	!	!	!	!	!
.	.	.	.	.	.	16cc\JJ)	.	.	.	.	.	.	.
=59	=59	=59	=59	=59	=59	=59	=59	=59	=59	=59	=59	=59	=59
!	!	!	!	!	!LO:DY:a	!	!LO:DY:a	!	!	!	!	!	!
8r	.	4d\	.	8d/	f	8b-\	f	2.ryy	2.ryy	4B-\	.	2.ryy	2.ryy
!	!	!	!	!	!LO:DY:a	!	!LO:DY:a	!	!	!	!	!	!
8BB-/	.	.	.	4d/	p	4b-\	p	.	.	.	.	.	.
8BB-/L	.	4d\	.	.	.	.	.	.	.	4B-\	.	.	.
8BB-/	.	.	.	4d/	.	4b-\	.	.	.	.	.	.	.
8BB-/	.	4r	.	.	.	.	.	.	.	4r	.	.	.
8BB-/J	.	.	.	8d/	.	8b-\	.	.	.	.	.	.	.
=60	=60	=60	=60	=60	=60	=60	=60	=60	=60	=60	=60	=60	=60
!	!	!	!	!	!LO:DY:a	!LO:TX:a:t=|	!	!	!	!	!	!	!
8r	.	8r	.	8dd\	f	8dd\	.	2.ryy	2.ryy	8r	.	2.ryy	2.ryy
!	!	!	!	!	!LO:DY:a	!LO:TX:a:t=problem&colon;niejednoznaczny zapis łuk/ligatura [przyjęto łuk]	!	!	!	!	!	!	!
8BB-/	.	8B-/	.	4dd\	p	(4dd\	.	.	.	8BB-/	.	.	.
8AA/L	.	(8A/L	.	.	.	.	.	.	.	8AA/L	.	.	.
8BB-/	.	8B-/	.	8dd\	.	8dd\)	.	.	.	8BB-/	.	.	.
!	!	!	!	!	!	!	!	!	!	!LO:TX:a:t=SIC&colon;s=8D	!	!	!
8D/	.	8d/	.	(16dd\LL	.	16dd\LL	.	.	.	8C/	.	.	.
.	.	.	.	16ee-\	.	16ee-\	.	.	.	.	.	.	.
8BB-/J	.	8B-/J)	.	16ee-\	.	16ee-\	.	.	.	8BB-/J	.	.	.
.	.	.	.	16ff\JJ)	.	16ff\JJ	.	.	.	.	.	.	.
=61	=61	=61	=61	=61	=61	=61	=61	=61	=61	=61	=61	=61	=61
!	!	!	!	!	!LO:DY:a	!	!LO:DY:a	!	!	!	!	!	!
8r	.	8r	.	8gg\	f	8gg\	f	2.ryy	2.ryy	8r	.	2.ryy	2.ryy
!	!	!	!	!	!LO:DY:a	!	!LO:DY:a	!	!	!	!	!	!
8E-\	.	8e-\	.	4gg\	p	4gg\	p	.	.	8E-\	.	.	.
8D\L	.	(8d\L	.	.	.	.	.	.	.	8D\L	.	.	.
8E-\	.	8e-\	.	8gg\	.	8gg\	.	.	.	8E-\	.	.	.
!LO:TX:a:t=SIC&colon;s=8G	!	!	!	!	!	!	!	!	!	!	!	!	!
8F\	.	8g\	.	16gg\LL	.	16gg\LL	.	.	.	8G\	.	.	.
.	.	.	.	16aa\	.	16aa\	.	.	.	.	.	.	.
8E-\J	.	8e-\J)	.	16aa\	.	16aa\	.	.	.	8E-\J	.	.	.
!LO:LB:g=original	!	!	!	!	!	!	!	!	!	!	!	!	!
.	.	.	.	16bb-\JJ	.	16bb-\JJ	.	.	.	.	.	.	.
=62	=62	=62	=62	=62	=62	=62	=62	=62	=62	=62	=62	=62	=62
8r	.	8r	.	8f/L	.	8f/L	f	2.ryy	2.ryy	8r	.	2.ryy	2.ryy
8G\	.	8g\	.	16b-/L	.	16b-/L	.	.	.	8B-\	.	.	.
.	.	.	.	16dd/JJ	.	16dd/JJ	.	.	.	.	.	.	.
!	!	!	!	!	!	!	!LO:DY:b:t=pia	!	!	!	!	!	!
.	.	.	.	.	.	8qqdd/	p	.	.	.	.	.	.
8F\L	.	4b-\	.	4b-\	.	2ccT\	.	.	.	4d\	.	.	.
8E-\	.	.	.	.	.	.	.	.	.	.	.	.	.
8F\	.	4an\	.	4a\	.	.	.	.	.	4c\	.	.	.
8FF/J	.	.	.	.	.	.	.	.	.	.	.	.	.
=63	=63	=63	=63	=63	=63	=63	=63	=63	=63	=63	=63	=63	=63
!	!	!	!	!	!	!	!LO:DY:b:t=fo	!	!	!	!	!	!
8r	.	8r	.	8dd\	.	8dd\	f	2.ryy	2.ryy	8r	.	2.ryy	2.ryy
8BB-/	.	8B-/	.	4dd\	.	4dd\	p	.	.	8BB-/	.	.	.
8AA/L	.	8A/L	.	.	.	.	.	.	.	8AA/L	.	.	.
8BB-/	.	8B-/	.	8dd\	.	8dd\	.	.	.	8BB-/	.	.	.
!	!	!	!	!	!	!	!	!	!	!LO:TX:a:t=SIC&colon;s=8D	!	!	!
8D/	.	8d/	.	16dd\LL	.	(16dd\LL	.	.	.	8C/	.	.	.
.	.	.	.	16ee-\	.	16ee-\	.	.	.	.	.	.	.
!	!	!	!	!	!	!	!	!	!	!LO:TX:a:t=SIC&colon;s=8BB-	!	!	!
8BB-/J	.	8B-/J	.	16ee-\	.	16ee-\	.	.	.	8AA/J	.	.	.
.	.	.	.	16ff\JJ	.	16ff\JJ)	.	.	.	.	.	.	.
!	!	!	!	!	!	!LO:LB:g=original	!	!	!	!	!	!	!
=64	=64	=64	=64	=64	=64	=64	=64	=64	=64	=64	=64	=64	=64
8r	.	8r	.	8gg\	.	8gg\	.	2.ryy	2.ryy	8r	.	2.ryy	2.ryy
!	!	!	!	!	!	!	!LO:DY:b:t=for	!	!	!	!	!	!
8E-\	.	(8e-\	.	4gg\	.	4gg\	f	.	.	8E-\	.	.	.
8D\L	.	8d\L	.	.	.	.	.	.	.	8D\L	.	.	.
8E-\	.	8e-\	.	8gg\	.	8gg\	.	.	.	8E-\	.	.	.
!	!	!	!	!LO:LB:g=original	!	!	!LO:DY:b:t=pia	!	!	!	!	!	!
8G\	.	8g\	.	16gg\LL	.	16gg\LL	p	.	.	8G\	.	.	.
.	.	.	.	16aa\	.	16aa\	.	.	.	.	.	.	.
8E-\J	.	8e-\J)	.	16aa\	.	16aa\	.	.	.	8E-\J	.	.	.
.	.	.	.	16bb-\JJ	.	16bb-\JJ	.	.	.	.	.	.	.
=65	=65	=65	=65	=65	=65	=65	=65	=65	=65	=65	=65	=65	=65
!	!	!	!	!	!	!	!LO:DY:a:t=for	!	!	!	!	!	!
8r	.	8r	.	8f/	.	8f/	f	2.ryy	2.ryy	8r	.	2.ryy	2.ryy
8G\	.	8g\	.	16b-\LL	.	(16b-\LL	.	.	.	8B-\	.	.	.
.	.	.	.	16dd\JJ	.	16dd\JJ)	.	.	.	.	.	.	.
.	.	.	.	.	.	16qqdd/	.	.	.	.	.	.	.
8F\L	.	4b-\	.	4b-\	.	2ccT\	.	.	.	4d\	.	.	.
8E-\	.	.	.	.	.	.	.	.	.	.	.	.	.
8F\	.	4a\	.	4a\	.	.	.	.	.	4c\	.	.	.
8FF/J	.	.	.	.	.	.	.	.	.	.	.	.	.
=66	=66	=66	=66	=66	=66	=66	=66	=66	=66	=66	=66	=66	=66
!	!	!	!	!	!LO:DY:a	!LO:TX:a:t=|	!LO:DY:a	!	!	!	!	!	!
!	!	!	!	!	!	!	!LO:DY:b:t=for	!	!	!	!	!	!
8r	.	8r	.	8b-\	p	8b-\	f	2.ryy	2.ryy	8r	.	2.ryy	2.ryy
!	!	!	!	!	!	!	!LO:DY:a:t=pia	!	!	!	!	!	!
8BB-/	.	4dd\	.	(8dd\L	.	(8dd\L	p	.	.	4e-\	.	.	.
8BB-/L	.	.	.	8ff\	.	8ff\	.	.	.	.	.	.	.
8BB-/	.	8ee-\L	.	8bb-\J)	.	8bb-\J)	.	.	.	8g\L	.	.	.
8BB-/	.	8dd\	.	4r	.	4r	.	.	.	8f\	.	.	.
8BB-/J	.	8cc\J	.	.	.	.	.	.	.	8e-\J	.	.	.
!	!	!	!	!	!	!	!	!	!	!LO:LB:g=original	!	!	!
=67	=67	=67	=67	=67	=67	=67	=67	=67	=67	=67	=67	=67	=67
!	!	!LO:N:vis=4	!	!	!	!LO:TX:a:t=|	!LO:DY:a	!	!	!	!	!	!
8r	.	8b-\	.	8b-\	.	8b-\	f	2.ryy	2.ryy	4d\	.	2.ryy	2.ryy
8BB-/	.	4dd\	.	8dd\L	.	(8dd\L	.	.	.	.	.	.	.
8BB-/L	.	.	.	8ff\	.	8ff\	.	.	.	4d\	.	.	.
8BB-/	.	8ee-\L	.	8bb-\J	.	8bb-\J)	.	.	.	.	.	.	.
8BB-/	.	8dd\	.	4r	.	4r	.	.	.	4e-\	.	.	.
8BB-/J	.	8cc\J	.	.	.	.	.	.	.	.	.	.	.
*Xtremolo	*	*	*	*	*	*	*	*	*	*	*	*	*
=68	=68	=68	=68	=68	=68	=68	=68	=68	=68	=68	=68	=68	=68
!	!	!LO:TX:a:t=problem&colon;brak ostatniego taktu	!	!	!	!	!	!	!	!	!	!	!
4BB-/	.	2.r	.	4b-\	.	4b-\	.	2.ryy	2.ryy	4d\	.	2.ryy	2.ryy
4r	.	.	.	4r	.	4r	.	.	.	4r	.	.	.
!	!	!	!	!LO:TX:b:t=Volti Preſto	!	!	!	!	!	!	!	!	!
4r	.	.	.	4r	.	4r	.	.	.	4r	.	.	.
=:|!	=:|!	=:|!	=:|!	=:|!	=:|!	=:|!	=:|!	=:|!	=:|!	=:|!	=:|!	=:|!	=:|!
*-	*-	*-	*-	*-	*-	*-	*-	*-	*-	*-	*-	*-	*-
!!!system-decoration: [(s1,s2,s3)][(s4,s5)][(s6,s7,s8,s9)]
!!!ENC: Andrzej Kubiczek
!!!END: 2020-07-18
!!!ENC: Julita Ruszuk
!!!END: 2022-02-28
